src/assets/icons/letters,fancy,serif-a.svg

<svg width="48" height="48" viewBox="0 0 48 48" fill="none" xmlns="http://www.w3.org/2000/svg">
<path d="M27.6747 28.146H16.9207C15.7301 30.8313 15.1347 32.6933 15.1347 33.732C15.1347 34.492 15.4134 34.9733 15.9707 35.176C16.5534 35.3787 17.4147 35.48 18.5547 35.48V37H8.14272V35.48C8.75072 35.404 9.27005 35.3027 9.70072 35.176C10.1567 35.0493 10.5494 34.872 10.8787 34.644C11.2334 34.416 11.5374 34.1247 11.7907 33.77C12.0441 33.39 12.2847 32.934 12.5127 32.402L22.5067 7.36H25.3187L34.4007 29.552C34.9327 30.844 35.3761 31.8573 35.7307 32.592C36.1107 33.3267 36.5034 33.8967 36.9087 34.302C37.3394 34.682 37.8207 34.948 38.3527 35.1C38.9101 35.252 39.6194 35.366 40.4807 35.442V37H26.1167V35.442C27.3327 35.3913 28.2067 35.2647 28.7387 35.062C29.2707 34.8593 29.5367 34.454 29.5367 33.846C29.5367 33.4913 29.4481 33.0353 29.2707 32.478C29.0934 31.9207 28.8527 31.2367 28.5487 30.426L27.6747 28.146ZM17.7947 25.866H26.8387L22.4687 14.352H22.3167L17.7947 25.866Z" fill="black"/>
</svg>

<svg xmlns="http://www.w3.org/2000/svg" width="48" height="48" fill="none" viewBox="0 0 48 48">
  <path fill="#000" d="M27.675 28.146H16.92c-1.19 2.685-1.786 4.547-1.786 5.586 0 .76.278 1.241.836 1.444.582.203 1.444.304 2.584.304V37H8.143v-1.52a9.988 9.988 0 001.558-.304 3.875 3.875 0 001.178-.532 3.32 3.32 0 00.912-.874c.253-.38.494-.836.722-1.368L22.507 7.36h2.812L34.4 29.552a59.284 59.284 0 001.33 3.04c.38.735.772 1.305 1.178 1.71.43.38.912.646 1.444.798.557.152 1.266.266 2.128.342V37H26.117v-1.558c1.216-.05 2.09-.177 2.622-.38s.798-.608.798-1.216c0-.355-.089-.81-.266-1.368a44.13 44.13 0 00-.722-2.052l-.874-2.28zm-9.88-2.28h9.044l-4.37-11.514h-.152l-4.522 11.514z"/>
</svg>
